X:63
T:När som flickorna de gifta sig
R:[[Låttyper/Slängpolska]] ([[Låttyper/Visa]])
Z:2007-09-05
O:Småland
D:[[Grupper/Sågskära]] - Krook
M:3/4
L:1/8
K:Dm
A(A/B/) A(A/B/) AG|FE D2 E2|F>E DE FG|GA A4:|
w:När som_ flic-kor--na de gif-ta sig då får de an-nat till att tän-ka på
A>F FF (FA)|A>G GG G2|AB c2 E2|F>E FG A2|
w:Ta sin lil-la vän,_ sväng-a om i-gen, ald-rig nån-sin ö-ver-gi-va den
(G/A/)B AA FD|(E^C) D4:|
w:för--rän dö-den dem åt-skil--ja
(:musicend:)

Här är en version:

(:music:)
